packages/ffe-icons/icons/filled/sm/dresser.svg

<svg xmlns="http://www.w3.org/2000/svg" height="20" viewBox="0 -960 960 960" width="20"><path d="M212.001-154.001v-577.69q0-26.527 18.903-45.417 18.902-18.891 45.445-18.891h407.626q26.543 0 45.283 18.891 18.741 18.89 18.741 45.417v577.69H696v-76.615H264v76.615h-51.999ZM264-501.384h190.001V-744H276.309q-5.385 0-8.847 3.462-3.462 3.462-3.462 8.847v230.307Zm241.999-141.307H696v-89q0-5.385-3.462-8.847-3.462-3.462-8.847-3.462H505.999v101.309Zm0 141.307H696v-89.309H505.999v89.309Zm-90.998 167.383h128.998v-51.998H415.001v51.998Z"/></svg>

<svg xmlns="http://www.w3.org/2000/svg" height="20" viewBox="0 -960 960 960" width="20"><path d="M212-154v-577.69q0-26.53 18.9-45.42Q249.81-796 276.35-796h407.62q26.55 0 45.29 18.89T748-731.69V-154h-52v-76.62H264V-154h-52Zm52-347.38h190V-744H276.31q-5.39 0-8.85 3.46t-3.46 8.85v230.31Zm242-141.31h190v-89q0-5.39-3.46-8.85t-8.85-3.46H506v101.31Zm0 141.31h190v-89.31H506v89.31ZM415-334h129v-52H415v52Z"/></svg>
